packages/assets/static/images/icons/bold/password--bold.svg

<svg width="24" height="24" viewBox="0 0 24 24" xmlns="http://www.w3.org/2000/svg">
<path d="M17.875 7.12489C17.875 7.42157 17.787 7.71157 17.6222 7.95825C17.4574 8.20492 17.2231 8.39718 16.949 8.51071C16.6749 8.62424 16.3733 8.65395 16.0824 8.59607C15.7914 8.53819 15.5241 8.39533 15.3143 8.18555C15.1046 7.97577 14.9617 7.7085 14.9038 7.41753C14.846 7.12656 14.8757 6.82496 14.9892 6.55087C15.1027 6.27678 15.295 6.04251 15.5417 5.87769C15.7883 5.71287 16.0783 5.62489 16.375 5.62489C16.7728 5.62489 17.1544 5.78293 17.4357 6.06423C17.717 6.34554 17.875 6.72707 17.875 7.12489ZM22.375 9.25677C22.3014 11.2964 21.4416 13.2285 19.9757 14.6485C18.5097 16.0685 16.5512 16.8663 14.5103 16.8749H14.5C13.7496 16.8761 13.0029 16.7693 12.2828 16.558L11.5459 17.2958C11.4414 17.4003 11.3173 17.4831 11.1807 17.5395C11.0441 17.596 10.8978 17.625 10.75 17.6249H9.62501V18.7499C9.62501 19.0483 9.50648 19.3344 9.2955 19.5454C9.08452 19.7564 8.79838 19.8749 8.50001 19.8749H7.37501V20.9999C7.37501 21.2983 7.25648 21.5844 7.0455 21.7954C6.83452 22.0064 6.54838 22.1249 6.25001 22.1249H3.25001C2.75273 22.1249 2.27581 21.9273 1.92418 21.5757C1.57255 21.2241 1.37501 20.7472 1.37501 20.2499V17.5602C1.37434 17.3139 1.42255 17.0699 1.51686 16.8423C1.61116 16.6148 1.74968 16.4082 1.92438 16.2346L6.94188 11.2171C6.62409 10.1243 6.54693 8.97559 6.71572 7.85011C6.88451 6.72463 7.29524 5.6491 7.91961 4.6976C8.54399 3.7461 9.36719 2.94124 10.3325 2.33844C11.2978 1.73565 12.3823 1.34924 13.5113 1.20584C14.6403 1.06243 15.787 1.16544 16.8723 1.50775C17.9577 1.85007 18.956 2.42357 19.7984 3.18876C20.6408 3.95394 21.3074 4.89263 21.7522 5.94017C22.197 6.98772 22.4095 8.11922 22.375 9.25677ZM18.4778 5.02208C17.9351 4.47449 17.2848 4.04539 16.5678 3.76188C15.8509 3.47836 15.0829 3.34659 14.3125 3.37489C11.3125 3.46864 8.87501 5.98958 8.87501 8.98958C8.87268 9.70176 9.00632 10.4078 9.26876 11.0699C9.35721 11.2766 9.38172 11.505 9.33911 11.7258C9.29649 11.9465 9.18872 12.1494 9.02969 12.3083L3.62501 17.7186V19.8749H5.12501V18.7499C5.12501 18.4515 5.24353 18.1654 5.45451 17.9544C5.66549 17.7434 5.95164 17.6249 6.25001 17.6249H7.37501V16.4999C7.37501 16.2015 7.49353 15.9154 7.70451 15.7044C7.91549 15.4934 8.20164 15.3749 8.50001 15.3749H10.2813L11.1859 14.4702C11.3449 14.311 11.548 14.2031 11.7689 14.1605C11.9899 14.1179 12.2185 14.1425 12.4253 14.2311C13.0856 14.4931 13.7897 14.6268 14.5 14.6249H14.5075C17.5075 14.6249 20.0266 12.1808 20.1222 9.18739C20.1505 8.4172 20.0189 7.6495 19.7359 6.93264C19.4529 6.21577 19.0246 5.56526 18.4778 5.02208Z"/>
</svg>

<svg viewBox="0 0 24 24" xmlns="http://www.w3.org/2000/svg" aria-hidden="true" fill="currentColor"><path d="M17.875 7.125a1.5 1.5 0 1 1-3 0 1.5 1.5 0 0 1 3 0m4.5 2.132a7.904 7.904 0 0 1-7.865 7.618h-.01a7.8 7.8 0 0 1-2.217-.317l-.737.738a1.12 1.12 0 0 1-.796.329H9.625v1.125A1.125 1.125 0 0 1 8.5 19.875H7.375V21a1.125 1.125 0 0 1-1.125 1.125h-3a1.875 1.875 0 0 1-1.875-1.875v-2.69a1.86 1.86 0 0 1 .55-1.325l5.017-5.018a7.875 7.875 0 1 1 15.433-1.96m-3.897-4.235a5.58 5.58 0 0 0-4.166-1.647c-3 .094-5.437 2.615-5.437 5.615a5.6 5.6 0 0 0 .394 2.08 1.125 1.125 0 0 1-.24 1.238l-5.404 5.41v2.157h1.5V18.75a1.125 1.125 0 0 1 1.125-1.125h1.125V16.5A1.125 1.125 0 0 1 8.5 15.375h1.781l.905-.905a1.125 1.125 0 0 1 1.24-.239c.66.262 1.364.396 2.074.394h.008c3 0 5.519-2.444 5.614-5.438a5.58 5.58 0 0 0-1.644-4.165"/></svg>
